!!!!SEGMENT: pl-kk--kk-i-15--018_gallus-iacobus--regnum-mundi.krn
!!!id: 16xx:1135
!!!COM: Gallus, Iacobus
!!!COM-rism: pe30001209
!!!CDT: 1550-1591/07/18
!!!CNT: Slovenian?
!!!OTL: Regnum mundi
!!!PDT:
!!!SMS-siglum: PL-Kk
!!!SMS-shelfmark: Kk.I.15
!!!NIFC-rismID: 1001147295
!!!URL-scan: http://repozytorium.nifc.pl/skany/pl-kk-nut--i-15
!!!ONB-nifc: UWAGA: C (skan 0011-0012), A (skan 0029), T (skan 0046), B (skan 0064)
!!!SMS-variant:
!!!SMS-altvar:
**kern	**text	**kern	**text	**kern	**text	**kern	**text
*part4	*part4	*part3	*part3	*part2	*part2	*part1	*part1
*staff4	*staff4	*staff3	*staff3	*staff2	*staff2	*staff1	*staff1
*I"Baſso	*	*I"Tenore.	*	*I"Alto	*	*I"Canto.	*
*I'B	*	*I'T	*	*I'A	*	*I'S	*
*clefC3	*	*clefG2	*	*clefG2	*	*clefC1	*
*	*	*ITrd7c12	*	*	*	*	*
*k[b-]	*	*k[b-]	*	*k[b-]	*	*k[b-]	*
*M2/1	*	*M2/1	*	*M2/1	*	*M2/1	*
*met(C|)	*	*met(C|)	*	*met(C|)	*	*met(C|)	*
=1-	=1-	=1-	=1-	=1-	=1-	=1-	=1-
!LO:TX:t=P:problem:inicjał "R" na pięciolinii przed kluczem	!	!LO:TX:t=P:problem:inicjał "R" na pięciolinii przed kluczem	!	!LO:TX:t=P:problem:inicjał "R" na pięciolinii przed kluczem	!	!LO:TX:t=P:problem:inicjał "R" na pięciolinii przed kluczem	!
1f	Re-	1F	Re-	1f	Re-	1f	Re-
!LO:TX:t=P:problem:kreska pseudotaktowa	!	!	!	!LO:TX:t=P:problem:kreska pseudotaktowa	!	!LO:TX:t=P:problem:kreska pseudotaktowa	!
1d	-gnum	1F	-gnum	1a	-gnum	1f	-gnum
=2-	=2-	=2-	=2-	=2-	=2-	=2-	=2-
*lig	*	*lig	*	*lig	*	*lig	*
1c	Mun-	1G	Mun-	1cc	Mun-	1e	Mun-
1B-	.	1B-	.	1dd	.	1f	.
*Xlig	*	*Xlig	*	*Xlig	*	*Xlig	*
=3-	=3-	=3-	=3-	=3-	=3-	=3-	=3-
!LO:TX:t=P:problem:kreska pseudotaktowa	!	!LO:TX:t=P:problem:kreska pseudotaktowa	!	!LO:TX:t=P:problem:kreska pseudotaktowa	!	!LO:TX:t=P:problem:kreska pseudotaktowa	!
0F	-di	0A	-di	0cc	-di	1f	-di
.	.	.	.	.	.	2r	.
.	.	.	.	.	.	2c/	et
=4-	=4-	=4-	=4-	=4-	=4-	=4-	=4-
1r	.	2F/	et	2r	.	2d/	om-
*	*	*	*	*2\right	*	*	*
!	!	!	!	!LO:TX:t=P:problem:kreska pseudotaktowa	!	!LO:TX:t=P:problem:kreska pseudotaktowa	!
.	.	2G/	om-	2cc\	et	2e/	-nem
2r	.	2A/	-nem	2dd\	om-	2f/	or-
*	*	*2\right	*	*	*	*	*
!LO:TX:t=P:problem:kreska pseudotaktowa	!	!LO:TX:t=P:problem:kreska pseudotaktowa	!	!	!	!	!
2c/	et	2c\	or-	2ee\	-nem	2g/	-na-
=5-	=5-	=5-	=5-	=5-	=5-	=5-	=5-
*2\right	*	*	*	*	*	*	*
2d\	om-	2A/	-na-	2ff\	or-	2f/	-tum
!	!	!	!	!LO:TX:t=P:problem:4\right:global	!	!LO:TX:t=P:problem:kreska pseudotaktowa:między nutą a kropką	!
2e\	-nem	2G/	-tum	4ee\	.	2.g/	ſae-
!	!	!	!	!LO:TX:t=P:problem:kreska pseudotaktowa	!	!	!
.	.	.	.	4dd\	.	.	.
2f\	or-	2.A/	ſae-	2cc\	.	.	.
.	.	.	.	.	.	4f/	.
!LO:TX:t=P:problem:kreska pseudotaktowa	!	!	!	!	!	!	!
2d\	-na-	.	.	2f/	-na-	1f/	-cu-
!	!	!LO:TX:t=P:problem:kreska pseudotaktowa	!	!	!	!	!
.	.	4B-/	.	.	.	.	.
=6-	=6-	=6-	=6-	=6-	=6-	=6-	=6-
!	!	!	!	!LO:SIC:v:t=custos cc	!	!	!
1c	-tum	2c\	.	2g/	-tum	.	.
!	!	!	!	!LO:PB:g=original	!	!	!
!	!	!	!	!	!	!LO:TX:t=P:problem:kreska pseudotaktowa	!
!	!	!LO:SIC:v:t=custos dd	!	!	!	!LO:SIC:v:t=custos f	!
.	.	2G/	-cu-	1cc	ſae-	2e/	.
!	!	!LO:PB:g=original	!	!	!	!LO:LB:g=original	!
2.d\	ſae-	1d	.	.	.	1.f	-li
!	!	!	!	!LO:TX:t=P:problem:kreska pseudotaktowa	!	!	!
.	.	.	.	2b-/	-cu-	.	.
!LO:TX:t=P:problem:4\right:global	!	!	!	!	!	!	!
4d\	-cu-	.	.	.	.	.	.
=7-	=7-	=7-	=7-	=7-	=7-	=7-	=7-
2d\	-li	2d\	-li	2a/	-li	.	.
!LO:TX:t=P:problem:kreska pseudotaktowa	!	!	!	!	!	!	!
!LO:SIC:v:t=custos B-	!	!	!	!	!	!LO:TX:t=P:problem:kreska pseudotaktowa	!
2c/	con-	1A	con-	2cc\	con-	2e/	con-
!LO:LB:g=original	!	!	!	!	!	!	!
1B-	tem-	.	.	1dd	-tem-	1d	-tem-
.	.	2G/	-tem-	.	.	.	.
=8-	=8-	=8-	=8-	=8-	=8-	=8-	=8-
!LO:TX:t=P:problem:kreska pseudotaktowa	!	!LO:TX:t=P:problem:kreska pseudotaktowa	!	!LO:TX:t=P:problem:kreska pseudotaktowa	!	!LO:TX:t=P:problem:kreska pseudotaktowa	!
1A	-psi	1A	-psi	1cc	-psi	1e	-psi
1d	prop-	2r	.	2r	.	2r	.
.	.	2B-/	prop-	2dd\	prop-	2f/	prop-
=9-	=9-	=9-	=9-	=9-	=9-	=9-	=9-
2c/	-ter	2c\	-ter	2ee\	-ter	2g/	-ter
*	*	*	*	*	*	*2\right	*
!LO:TX:t=P:problem:kreska pseudotaktowa	!	!	!	!LO:TX:t=P:problem:kreska pseudotaktowa	!	!LO:TX:t=P:problem:kreska pseudotaktowa	!
2B-/	a-	2d\	a-	2ff\	a-	2b-\	a-
1e-X	-mo-	1e-X	-mo-	1gg	-mo-	1b-	-mo-
=10-	=10-	=10-	=10-	=10-	=10-	=10-	=10-
2f\	-rem	2d\	-rem	2ff\	-rem	2a\	-rem
1f	Do-	1c	Do-	1ff	Do-	1a	Do-
!LO:TX:t=P:problem:kreska pseudotaktowa	!	!LO:TX:t=P:problem:kreska pseudotaktowa	!	!LO:TX:t=P:problem:kreska pseudotaktowa	!	!LO:TX:t=P:problem:kreska pseudotaktowa	!
2c/	-mi-	2c\	-mi-	2ee\	-mi-	2g/	-mi-
=11-	=11-	=11-	=11-	=11-	=11-	=11-	=11-
*	*	*	*	*	*	*lig	*
1d	-ni	2A/	-ni	2dd\	-ni	1f	-ni
.	.	2B-/	me-	1ee	me-	.	.
!	!	!LO:TX:t=P:problem:kreska pseudotaktowa	!	!	!	!	!
1c	me-	1c	-i	.	.	1g	.
!	!	!	!	!LO:TX:t=P:problem:kreska pseudotaktowa	!	!	!
.	.	.	.	2ee\	-i	.	.
*	*	*	*	*	*	*Xlig	*
=12-	=12-	=12-	=12-	=12-	=12-	=12-	=12-
*lig	*	*	*	*	*	*	*
!	!	!	!	!LO:TX:t=P:problem:fragment niewidoczny (defekt źródła)	!	!	!
*	*	*	*	*	*	*lig	*
1F	-i	2r	.	1ryy	.	1a	me-
.	.	1c	JE-	.	.	.	.
!	!	!	!	!LO:LB:g=original	!	!	!
!LO:TX:t=P:problem:kreska pseudotaktowa	!	!	!	!	!	!	!
*	*	*	*	*	*	*col	*
1G	.	.	.	0r	.	2.g/	.
!	!	!LO:TX:t=P:problem:kreska pseudotaktowa	!	!	!	!	!
!	!	!LO:SIC:v:t=custos cc	!	!	!	!	!
.	.	2B-/	-SU	.	.	.	.
*	*	*	*	*	*	*Xlig	*
!	!	!	!	!	!	!LO:TX:t=P:problem:kreska pseudotaktowa	!
.	.	.	.	.	.	4f/	-i
*Xlig	*	*	*	*	*	*Xcol	*
!	!	!LO:LB:g=original	!	!	!	!	!
=13-	=13-	=13-	=13-	=13-	=13-	=13-	=13-
*	*	*lig	*	*	*	*	*
2r	.	1c	chri-	.	.	1e	.
1c	JE-	.	.	.	.	.	.
!	!	!	!	!LO:TX:t=P:problem:kreska pseudotaktowa	!	!	!
.	.	1d	.	1r	.	2d/	.
!	!	!	!	!	!	!LO:SIC:v:t=custos e	!
2B-/	-SU	.	.	.	.	1f/	JE-
!LO:TX:t=P:problem:kreska pseudotaktowa	!	!	!	!	!	!	!
*	*	*Xlig	*	*	*	*	*
=14-	=14-	=14-	=14-	=14-	=14-	=14-	=14-
*lig	*	*	*	*	*	*	*
!	!	!LO:TX:t=P:problem:kreska pseudotaktowa	!	!	!	!	!
1c	chri-	1c	-sti	2r	.	.	.
!	!	!	!	!	!	!LO:LB:g=original	!
!	!	!	!	!	!	!LO:TX:t=P:problem:kreska pseudotaktowa	!
.	.	.	.	1cc	JE-	2e/	.
1d	.	2A,/	.	.	.	1f	-su
.	.	1B-\	JE-	2b-/	-SU	.	.
*Xlig	*	*	*	*	*	*	*
=15-	=15-	=15-	=15-	=15-	=15-	=15-	=15-
0c	.	.	.	0cc	chri-	2g/	.
!	!	!LO:TX:t=P:problem:kreska pseudotaktowa	!	!	!	!	!
.	.	2A/	-SU	.	.	1f	CHRI-
.	.	1G	chri-	.	.	.	.
.	.	.	.	.	.	2e/	.
=16-	=16-	=16-	=16-	=16-	=16-	=16-	=16-
!LO:SIC:v:t=custos f	!	!	!	!LO:TX:t=P:problem:kreska pseudotaktowa	!	!LO:TX:t=P:problem:kreska pseudotaktowa	!
2F/	-sti	2A/	-(sti)	0cc	-sti	1f	-STI
!LO:PB:g=original	!	!	!	!	!	!	!
*	*	*	*ij	*	*	*	*
1f	JE-	1A	JE-	.	.	.	.
.	.	.	.	.	.	1r	.
!	!	!LO:TX:t=P:problem:kreska pseudotaktowa	!	!	!	!	!
2eny\	.	2G/	.	.	.	.	.
=17-	=17-	=17-	=17-	=17-	=17-	=17-	=17-
1d	-SU	1F	-SU	2r	.	2r	.
.	.	.	.	1a	JE-	1f	JE-
!LO:TX:t=P:problem:kreska pseudotaktowa	!	!	!	!	!	!	!
1c	.	1c	chri-	.	.	.	.
!	!	!	!	!LO:TX:t=P:problem:kreska pseudotaktowa	!	!LO:TX:t=P:problem:kreska pseudotaktowa	!
.	.	.	.	2g/	-SU	2e/	-SU
=18-	=18-	=18-	=18-	=18-	=18-	=18-	=18-
*lig	*	*	*	*	*	*	*
!	!	!LO:TX:t=P:problem:kreska pseudotaktowa	!	!	!	!	!
*	*	*	*	*	*	*lig	*
1d	CHRI-	1A	-(sti)	2f/	.	1f	chri-
*	*	*	*Xij	*	*	*	*
.	.	.	.	1ff	CHRI-	.	.
1c	.	2r	.	.	.	1g	.
!	!	!	!	!LO:TX:t=P:problem:kreska pseudotaktowa	!	!	!
.	.	2c\	quem	2ee\	.	.	.
*Xlig	*	*	*	*	*	*Xlig	*
=19-	=19-	=19-	=19-	=19-	=19-	=19-	=19-
!LO:TX:t=P:problem:kreska pseudotaktowa	!	!	!	!	!	!LO:TX:t=P:problem:kreska pseudotaktowa	!
1f	-(sti)	2d\	Vi-	1ff	-(sti)	0a	-sti
!	!	!LO:TX:t=P:problem:kreska pseudotaktowa	!	!	!	!	!
.	.	2c\	-di	.	.	.	.
!LO:TX:a:t=I.	!	!	!	!	!	!	!
1r	.	2f\	quem	2r	.	.	.
!	!	!LO:SIC:v:t=custos ff	!	!LO:TX:t=P:problem:kreska pseudotaktowa	!	!	!
.	.	2eny\	a-	2cc\	quem	.	.
!	!	!LO:LB:g=original	!	!	!	!	!
=20-	=20-	=20-	=20-	=20-	=20-	=20-	=20-
2r	.	2f\	-ma-	2dd\	Vi-	1r	.
!LO:TX:t=P:problem:kreska pseudotaktowa	!	!LO:TX:t=P:problem:kreska pseudotaktowa	!	!	!	!	!
2c/	quem	2e\	-ui	2cc\	-di	.	.
!	!	!	!	!LO:SIC:v:t=custos ee	!	!	!
2d\	Vi-	2r	.	2ff\	quem	2r	.
!	!	!	!	!LO:LB:g=original	!	!	!
!	!	!	!	!LO:TX:t=P:problem:kreska pseudotaktowa	!	!LO:TX:t=P:problem:kreska pseudotaktowa	!
*	*	*	*ij	*	*	*	*
2c/	-di	2c\	quem	2ee\	a-	2g/	quem
=21-	=21-	=21-	=21-	=21-	=21-	=21-	=21-
2f\	quem	2d\	Vi-	4ff\	.	2a\	Vi-
.	.	.	.	4f/	.	.	.
!LO:TX:t=P:problem:kreska pseudotaktowa	!	!LO:TX:t=P:problem:kreska pseudotaktowa	!	!	!	!LO:TX:t=P:problem:kreska pseudotaktowa	!
2e\	a-	2c\	-di	1cc	.	2g/	-di
1d	-ma-	2f\	quem	.	.	2a\	quem
!	!	!	!	!	!	!LO:TX:t=P:problem:kreska pseudotaktowa	!
!	!	!	!	!LO:TX:t=P:problem:kreska pseudotaktowa	!	!LO:SIC:v:t=custos g	!
.	.	2d\	a-	2b-/	-ma-	2f/	a-
!	!	!	!	!	!	!LO:LB:g=original	!
=22-	=22-	=22-	=22-	=22-	=22-	=22-	=22-
!LO:TX:t=P:problem:kreska pseudotaktowa	!	!LO:TX:t=P:problem:kreska pseudotaktowa	!	!LO:TX:t=P:problem:kreska pseudotaktowa	!	!	!
1c	-ui	1e	-ma-	0cc	-ui	1g	-ma-
!	!	!	!	!	!	!LO:TX:t=P:problem:kreska pseudotaktowa	!
2r	.	2A,/	-ui	.	.	1f	-ui
*	*ij	*	*Xij	*	*	*	*
!LO:TX:t=P:problem:kreska pseudotaktowa	!	!	!	!	!	!	!
!LO:SIC:v:t=custos G	!	!	!	!	!	!	!
2F/	quem	2A/	quem	.	.	.	.
!LO:LB:g=original	!	!	!	!	!	!	!
=23-	=23-	=23-	=23-	=23-	=23-	=23-	=23-
2G/	Vi-	2B-/	Vi-	1r	.	2r	.
!LO:TX:t=P:problem:kreska pseudotaktowa	!	!LO:TX:t=P:problem:kreska pseudotaktowa	!	!	!	!	!
*	*	*	*	*	*	*	*ij
2F/	-di	2A/	-di	.	.	2c/	quem
2B-/	quem	2r	.	2r	.	2d/	Vi-
!	!	!LO:TX:t=P:problem:kreska pseudotaktowa	!	!LO:TX:t=P:problem:kreska pseudotaktowa	!	!LO:TX:t=P:problem:kreska pseudotaktowa	!
*	*	*	*ij	*	*ij	*	*
2A/	a-	2A/	quem	2cc\	quem	2c/	-di
=24-	=24-	=24-	=24-	=24-	=24-	=24-	=24-
2d\	-ma-	2B-/	Vi-	2b-/	Vi-	2f/	quem
!LO:TX:t=P:problem:kreska pseudotaktowa	!	!LO:TX:t=P:problem:kreska pseudotaktowa	!	!	!	!	!
2A/	-ui	2A/	-di	2cc\	-di	2e/	a-
*	*	*	*Xij	*	*	*	*
2r	.	2d\	quem	2ff\	quem	2d/	-ma-
!	!	!LO:SIC:v:t=custos a	!	!LO:TX:t=P:problem:kreska pseudotaktowa	!	!LO:TX:t=P:problem:kreska pseudotaktowa	!
2c/	quem	2c\	a-	2ee\	a-	2e/	-ui
*	*	*	*	*	*	*	*Xij
!	!	!LO:LB:g=original	!	!	!	!	!
=25-	=25-	=25-	=25-	=25-	=25-	=25-	=25-
2d\	Vi-	8A/L	-ma-	2dd\	-ma-	2r	.
.	.	8G/	.	.	.	.	.
.	.	8A/	.	.	.	.	.
.	.	8B-/J	.	.	.	.	.
!LO:TX:t=P:problem:kreska pseudotaktowa	!	!	!	!LO:TX:t=P:problem:kreska pseudotaktowa	!	!LO:TX:t=P:problem:kreska pseudotaktowa	!
2c/	-di	2c\	.	2ee\	-ui	2g/	quem
*	*	*	*	*	*Xij	*	*
!	!	!LO:TX:t=P:problem:kreska pseudotaktowa	!	!	!	!	!
2f\	quem	1c	-ui	2r	.	2a\	Vi-
!	!	!	!	!LO:TX:t=P:problem:kreska pseudotaktowa	!	!LO:TX:t=P:problem:kreska pseudotaktowa	!
2e\	a-	.	.	2cc\	quem	2g/	-di
=26-	=26-	=26-	=26-	=26-	=26-	=26-	=26-
1.d	-ma-	2r	.	2dd\	Vi-	4f/	quem
.	.	.	.	.	.	4d/	.
.	.	1d	quem	2a/	-di	4f/	.
!	!	!	!	!	!	!LO:TX:t=P:problem:kreska pseudotaktowa	!
.	.	.	.	.	.	4g/	.
!	!	!	!	!LO:SIC:v:t=custos ee	!	!	!
.	.	.	.	2ff\	quem	2.a\	.
!	!	!	!	!LO:LB:g=original	!	!	!
!LO:TX:t=P:problem:kreska pseudotaktowa	!	!LO:TX:t=P:problem:kreska pseudotaktowa	!	!LO:TX:t=P:problem:kreska pseudotaktowa	!	!	!
2A/	-ui	2c\	a-	2ee\	a-	.	.
*	*Xij	*	*	*	*	*	*
.	.	.	.	.	.	4g/	.
=27-	=27-	=27-	=27-	=27-	=27-	=27-	=27-
2B-/	quem	4B-/	.	4dd\	.	2f/	.
.	.	4A/	.	4cc\	.	.	.
!	!	!	!	!	!	!LO:TX:t=P:problem:kreska pseudotaktowa	!
!	!	!LO:TX:t=P:problem:kreska pseudotaktowa	!	!	!	!LO:SIC:v:t=custos f	!
2c/	di-	2G/	-ma-	2.cc\	.	2e/	a-
!	!	!	!	!	!	!LO:LB:g=original	!
*	*	*	*	*	*	*lig	*
1d	-le-	2F,/	-ui	.	.	1f	-ma-
.	.	.	.	4b-/	.	.	.
!	!	!	!	!LO:TX:t=P:problem:kreska pseudotaktowa	!	!	!
.	.	1f\	in	2b-/	.	.	.
=28-	=28-	=28-	=28-	=28-	=28-	=28-	=28-
!LO:TX:t=P:problem:kreska pseudotaktowa	!	!	!	!	!	!	!
!LO:SIC:v:t=custos f	!	!	!	!	!	!	!
1c	-xi	.	.	2.cc\	.	1g	.
!	!	!LO:TX:t=P:problem:kreska pseudotaktowa	!	!	!	!	!
.	.	2e\	quem	.	.	.	.
.	.	.	.	4b-/	ma-	.	.
!	!	!	!	!LO:TX:t=P:problem:kreska pseudotaktowa	!	!	!
*	*	*	*	*	*	*Xlig	*
!LO:LB:g=original	!	!	!	!	!	!	!
!	!	!	!	!	!	!LO:TX:t=P:problem:kreska pseudotaktowa	!
2r	.	2.d\	cre-	2a/	-ui	1f	-ui
1f\	in	.	.	1a/	in	.	.
!	!	!LO:TX:t=P:problem:4\right:global	!	!	!	!	!
.	.	4d\	-di-	.	.	.	.
=29-	=29-	=29-	=29-	=29-	=29-	=29-	=29-
!	!	!LO:TX:t=P:problem:kreska pseudotaktowa	!	!	!	!	!
.	.	1c	-di	.	.	2r	.
!LO:TX:t=P:problem:kreska pseudotaktowa	!	!	!	!LO:TX:t=P:problem:kreska pseudotaktowa	!	!LO:TX:t=P:problem:kreska pseudotaktowa	!
2e\	quem	.	.	2g/	quem	2cc\	in
2.d\	cre-	2r	.	2.f/	cre-	2b-\	quem
*	*	*	*ij	*	*	*	*
.	.	1f\	in	.	.	1a\	cre-
4d\	-di-	.	.	4f/	-di-	.	.
=30-	=30-	=30-	=30-	=30-	=30-	=30-	=30-
!	!	!	!	!LO:TX:t=P:problem:kreska pseudotaktowa	!	!	!
1c	-di	.	.	1cc	-di	.	.
!	!	!LO:SIC:v:t=custos dd	!	!	!	!LO:TX:t=P:problem:kreska pseudotaktowa	!
.	.	2e\	quem	.	.	2g/	-di-
!	!	!LO:LB:g=original	!	!	!	!	!
!LO:TX:t=P:problem:kreska pseudotaktowa	!	!	!	!	!	!	!
*	*ij	*	*	*	*	*	*
1d	in	2.d\	cre-	2r	.	2f/	-di
*	*	*	*	*	*ij	*	*ij
.	.	.	.	1ff\	in	1b-\	in
!	!	!LO:TX:t=P:problem:kreska pseudotaktowa	!	!	!	!	!
.	.	4d\	-di-	.	.	.	.
=31-	=31-	=31-	=31-	=31-	=31-	=31-	=31-
1A	quem	2c,\	-di	.	.	.	.
!	!	!	!	!	!	!LO:TX:t=P:problem:kreska pseudotaktowa	!
.	.	1c	in	1ee	quem	2a\	quem
2.B-/	cre-	.	.	.	.	2.f/	cre-
!	!	!LO:TX:t=P:problem:kreska pseudotaktowa	!	!	!	!	!
.	.	2B-/	quem	2.dd\	cre-	.	.
4B-/	-di-	.	.	.	.	4f/	-di-
=32-	=32-	=32-	=32-	=32-	=32-	=32-	=32-
!LO:TX:t=P:problem:kreska pseudotaktowa	!	!	!	!	!	!	!
1F,	-di	2.A/	cre-	.	.	1.f	-di
.	.	.	.	4dd\	-di-	.	.
.	.	.	.	2dd\	-di	.	.
*	*	*	*	*	*Xij	*	*
.	.	4A,/	-di-	.	.	.	.
2r	.	2A/	-di	1.cc	quem	.	.
1f\	in	1c\	in	.	.	1a\	in
=33-	=33-	=33-	=33-	=33-	=33-	=33-	=33-
.	.	.	.	.	.	.	.
!LO:TX:t=P:problem:kreska pseudotaktowa	!	!LO:TX:t=P:problem:kreska pseudotaktowa	!	!	!	!LO:TX:t=P:problem:kreska pseudotaktowa	!
2c/	quem	2c\	quem	2b-/	di-	2g/	quem
2.d\	cre-	2.A/	cre-	1cc	-le-	2.f/	cre-
!	!	!	!	!	!	!LO:TX:t=P:problem:kreska pseudotaktowa	!
4d\	-di-	4A/	-di-	.	.	4f/	-di-
=34-	=34-	=34-	=34-	=34-	=34-	=34-	=34-
1A	-di	2A/	-di	[0ccl;;	-xi	1e	-di
*	*Xij	*	*Xij	*	*	*	*Xij
.	.	1A	quem	.	.	.	.
!	!	!	!	!	!	!LO:PB:g=original	!
!LO:TX:t=P:problem:kreska pseudotaktowa	!	!	!	!	!	!	!
!LO:SIC:v:t=custos c	!	!	!	!	!	!	!
1d	quem	.	.	.	.	4f/	quem
.	.	.	.	.	.	4g/	.
!	!	!LO:TX:t=P:problem:kreska pseudotaktowa	!	!	!	!	!
.	.	2A/	di	.	.	4a/	.
.	.	.	.	.	.	4f/	.
!LO:LB:g=original	!	!	!	!	!	!	!
=35-	=35-	=35-	=35-	=35-	=35-	=35-	=35-
1c	di-	1c	le-	0cc_	.	2g/	.
!	!	!	!	!	!	!LO:TX:t=P:problem:kreska pseudotaktowa	!
.	.	.	.	.	.	2a\	di-
1c	-le-	1c	-xi	.	.	1g	-le-
=36-	=36-	=36-	=36-	=36-	=36-	=36-	=36-
*lig	*	*	*	*	*	*	*
!	!	!LO:TX:t=P:problem:kreska pseudotaktowa	!	!	!	!	!
1F	-xi	1A	in	0cc_	.	2a,\	-xi
.	.	.	.	.	.	1f	in
!LO:TX:t=P:problem:kreska pseudotaktowa	!	!	!	!	!	!	!
1c	.	2r	.	.	.	.	.
!	!	!LO:SIC:v:t=custos f	!	!	!	!	!
!	!	!LO:TX:t=P:problem:kreska pseudotaktowa	!	!	!	!LO:TX:t=P:problem:kreska pseudotaktowa	!
.	.	2G/	quem	.	.	2e/	quem
*Xlig	*	*	*	*	*	*	*
!	!	!LO:LB:g=original	!	!	!	!	!
=37-	=37-	=37-	=37-	=37-	=37-	=37-	=37-
2r	.	2.F/	cre-	0cc_	.	2.d/	cre-
1f	in	.	.	.	.	.	.
.	.	4F/	-di-	.	.	4d/	-di-
!	!	!LO:TX:t=P:problem:kreska pseudotaktowa	!	!	!	!	!
.	.	1c	-di	.	.	1c	-di
!LO:TX:t=P:problem:kreska pseudotaktowa	!	!	!	!	!	!	!
2e\	quem	.	.	.	.	.	.
=38-	=38-	=38-	=38-	=38-	=38-	=38-	=38-
2.d\	cre-	2r	.	0cc_	.	2f/	quem
*	*	*	*ij	*	*	*	*
!	!	!	!	!	!	!LO:TX:t=P:problem:kreska pseudotaktowa	!
.	.	1f	in	.	.	2f/	di-
4d\	-di-	.	.	.	.	.	.
!LO:TX:t=P:problem:kreska pseudotaktowa	!	!	!	!	!	!	!
1c	-di	.	.	.	.	1g	-le-
!	!	!LO:TX:t=P:problem:kreska pseudotaktowa	!	!	!	!	!
.	.	2e\	quem	.	.	.	.
=39-	=39-	=39-	=39-	=39-	=39-	=39-	=39-
*	*ij	*	*	*	*	*	*
1d	in	2.d\	cre-	0cc_	.	2f,/	-xi
.	.	.	.	.	.	1a	in
.	.	4d\	-di-	.	.	.	.
!LO:TX:t=P:problem:kreska pseudotaktowa	!	!LO:TX:t=P:problem:kreska pseudotaktowa	!	!	!	!	!
1A	quem	1c	-di	.	.	.	.
*	*	*	*Xij	*	*	*	*
!	!	!	!	!	!	!LO:TX:t=P:problem:kreska pseudotaktowa	!
.	.	.	.	.	.	2a\	quem
=40-	=40-	=40-	=40-	=40-	=40-	=40-	=40-
2.B-/	cre-	1B-	.	0cc_	.	2.f/	cre-
!LO:TX:t=P:problem:kreska pseudotaktowa	!	!	!	!	!	!	!
4B-/	-di-	.	.	.	.	4f/	-di-
!	!	!	!	!	!	!LO:SIC:v:t=custos e	!
2B-/	-di	2B-/	quem	.	.	2f/	-di
*	*Xij	*	*	*	*	*	*
!	!	!	!	!	!	!LO:LB:g=original	!
!	!	!	!	!	!	!LO:TX:t=P:problem:kreska pseudotaktowa	!
1c\	quem	1G/	.	.	.	2e/	quem
=41-	=41-	=41-	=41-	=41-	=41-	=41-	=41-
.	.	.	.	0cc_	.	2e/	.
!	!	!LO:TX:t=P:problem:kreska pseudotaktowa	!	!	!	!	!
2d\	di-	2F/	di-	.	.	1f	di-
1c	-le-	1G	-le-	.	.	.	.
.	.	.	.	.	.	2e/	-le-
=42-	=42-	=42-	=42-	=42-	=42-	=42-	=42-
0F;>	-xi	0A;;	-xi	0cc]	.	0f;;	-xi
==	==	==	==	==	==	==	==
*-	*-	*-	*-	*-	*-	*-	*-
!!!system-decoration: [(s1,s2,s3,s4)]
!!!RDF**kern: > = above
!!!RDF**kern: < = below
!!!RDF**kern: l = terminal long
!!!EED: Mateusz Mrugas
!!!EST: 2021-03-28
!!!ENC: Tomasz Grochalski
!!!END: 2021-03-21
